X: 37296
T: Skolion Of Seikilos
R: jig
M: 6/8
K: Adorian
Aee ec Ac|cde cd BG|c2 d ec dc|B2 ^A BG AE|
A2 e ec Ac|cee cd BG|cdd ec Ac|B^AB =A2- A:|
acc ec dc|abb ga ^ga|cee ac ec|fgg af ge|
1 aec ec dc|a2 b g2 ^ga|c2 e ac ec|dBc A2- A:|
2 Aee ce Ac|c2 e ed BG|c2 d dc Ac|AB^G A2- A||

